modules/coreui-icons-free/icons/tablet.svg

<!-- Generated by IcoMoon.io -->
<svg version="1.1" xmlns="http://www.w3.org/2000/svg" width="24" height="24" viewBox="0 0 24 24">
<title>tablet</title>
<path d="M20.625 0.75h-16.875c-0.621 0.001-1.124 0.504-1.125 1.125v20.25c0.001 0.621 0.504 1.124 1.125 1.125h16.875c0.621-0.001 1.124-0.504 1.125-1.125v-20.25c-0.001-0.621-0.504-1.124-1.125-1.125h-0zM20.25 2.25v13.5h-16.125v-13.5zM4.125 21.75v-4.5h16.125v4.5z"></path>
<path d="M10.875 18.75h1.5v1.5h-1.5v-1.5z"></path>
</svg>

<svg xmlns="http://www.w3.org/2000/svg" width="24" height="24" viewBox="0 0 24 24"><path d="M20.625.75H3.75a1.127 1.127 0 00-1.125 1.125v20.25A1.127 1.127 0 003.75 23.25h16.875a1.127 1.127 0 001.125-1.125V1.875A1.127 1.127 0 0020.625.75zm-.375 1.5v13.5H4.125V2.25zM4.125 21.75v-4.5H20.25v4.5z"/><path d="M10.875 18.75h1.5v1.5h-1.5v-1.5z"/></svg>
